X:300
T:Molly and Tenbrooks
C:Ricky Skaggs
N: "J.D.Crowe and the New South - Holiday in Japan"
R:bluegrass
L:1/8
Q:1/4=224
M:4/4
K:C
z2 ^F2 F2 ^G2 | "B"BB B^c B2 Bc | ^d^f f^g f2 f=g | ^gb g^f e^c B^d | "E"e2 ee e2 B^d | 
e2 e^f ^gb ge | "B"g_b ge ^f^g fe | {^c}"F#"^d^f dc B^F ^G2 | "B"Bd ^d2 ef ^fb | 
^f=f e^c ^d^f {c}dc | B^F ^GB d^d ^f^g | "F#"^fd ^df d^c B^G | "B"B^G B2 b2 a^d' | 
ba f^f af e^d | zB2[A^D] [A2D2] [AD][AD] | 


